X:1
T:Title
%%score { ( 1 4 ) | ( 2 3 ) }
L:1/8
Q:1/4=108
M:6/8
K:C
V:1 treble nm="Grand Piano"
V:4 treble 
V:2 bass 
V:3 bass 
V:1
 [EG]2 [_E^F] [=EG]2 [=FA] | [EG]3 [Ec]3 | [EG]2 [_E^F] [=EG]2 [Ec] | [FB]6 | %4
w: J.~E.~Delmarter * * *||||
 [DF]2 [^CE] [DF]2 [EG] | [DF]3 [FB]3 | [DF]2 [EG] [FA]2 F | E6 | [EG]2 [_E^F] [=EG]2 [=FA] | %9
w: |||||
 [EG]3 [Ec]3 | [EG]2 [_E^F] [=EG]2 [Ec] | [FB]6 | B2 A G2 F | E2 [B,FG] [CEc]2 [A,DF] | %14
w: |||||
 [CE]3[K:bass] .[G,B,D]3 | [E,C]6 | [Ec]2 [_Ec] [=Ec]2 [Fc] | [Ec]3 C3 | E2 E E2 E | [CA]6 | %20
w: ||||||
 F2 F F2 F | E2 [CEG] [CFA]2 [CGc] | [DGB]3 [C^FA]3 | [B,G]6 | [Ec]2 [_Ec] [=Ec]2 [Fc] | [Ec]3 C3 | %26
w: ||||||
 E2 E E2 E | [CA]6 | B2 A G2 F | E2 [FG] c2 F | z3[K:bass] [B,D]3 | C6 |] %32
w: ||||||
V:2
 [C,C]2 [C,C] [C,C]2 [C,C] | [C,C]3 [C,G,]3 | [C,C]2 [C,C] [C,C]2 [C,G,] | [D,G,]6 | %4
 [G,,G,]2 [G,,G,] [G,,G,]2 [G,,G,] | [G,,G,]3 [G,,G,]3 | [F,B,]2 [E,B,] [D,B,]2 [G,B,D] | [C,C]6 | %8
 [C,C]2 [C,C] [C,C]2 [C,C] | [C,C]3 [C,G,]3 | [C,C]2 [C,C] [E,C]2 [C,G,] | [D,G,]6 | %12
 [G,D]2 [G,A,F][K:bass] [G,B,E]2 [G,B,D] | [C,C]2 D, E,2 F, | G,3 z2 F, | C,6 | %16
 [C,G,]2 [C,^F,] [C,G,]2 [C,A,] | [C,G,]3 [A,,A,]3 | [E,A,C]2 [E,A,C] [E,^G,D]2 [E,G,D] | %19
 [A,,E,A,]6 | [F,A,C]2 [F,A,C] [G,B,]2 [G,B,] | [C,G,C]2 C, F,2 E, | D,3 D,3 | G,6 | %24
 [C,G,]2 [C,^F,] [C,G,]2 [C,A,] | [C,G,]3 [A,,A,]3 | [E,A,C]2 [E,A,C] [E,^G,D]2 [E,G,D] | %27
 [A,,E,A,]6 | [G,D]2 [G,A,F][K:bass] [G,B,E]2 [G,B,D] | [C,C]2 [D,B,] [E,CE]2 [F,A,D] | %30
 [G,C]3 .[G,,G,]3 | [C,E,]6 |] %32
V:3
 x6 | x6 | x6 | x6 | x6 | x6 | x6 | x6 | x6 | x6 | x6 | x6 | x3[K:bass] x3 | x6 | z3 G,,3 | x6 | %16
 x6 | x6 | x6 | x6 | x6 | x6 | x6 | x6 | x6 | x6 | x6 | x6 | x3[K:bass] x3 | x6 | x6 | x6 |] %32
V:4
 x6 | x6 | x6 | x6 | x6 | x6 | x6 | x6 | x6 | x6 | x6 | x6 | x6 | x6 | x3[K:bass] x3 | x6 | x6 | %17
 x6 | x6 | x6 | x6 | x6 | x6 | x6 | x6 | x6 | x6 | x6 | x6 | x6 | E3[K:bass] z2 F, | x6 |] %32

